UI/Devices-Sensors/SVG/device-group-smart-filter_solid_24px.svg

<svg width="24" height="24" viewBox="0 0 24 24" fill="none" xmlns="http://www.w3.org/2000/svg">
<path d="M2 12V15C2 15.5304 2.21071 16.0391 2.58579 16.4142C2.96086 16.7893 3.46957 17 4 17V14H11V12H2ZM18 12L17.2 12.6L15.33 14H20V17C20.5304 17 21.0391 16.7893 21.4142 16.4142C21.7893 16.0391 22 15.5304 22 15V12H18ZM6 16V20C6 20.5304 6.21071 21.0391 6.58579 21.4142C6.96086 21.7893 7.46957 22 8 22H16C16.5304 22 17.0391 21.7893 17.4142 21.4142C17.7893 21.0391 18 20.5304 18 20V16H6ZM7.29 8.28997L8.72 9.71997C9.08758 9.19011 9.57782 8.75697 10.1489 8.45748C10.7201 8.15799 11.3551 8.00103 12 7.99997V5.99997C11.0929 6.0008 10.1978 6.2073 9.38196 6.60395C8.56615 7.00059 7.8509 7.57705 7.29 8.28997ZM12 1.99997C10.5679 2.00087 9.15268 2.30936 7.85012 2.90457C6.54755 3.49978 5.38803 4.36782 4.45 5.44997L5.87 6.86997C6.6199 5.97262 7.55742 5.25059 8.61652 4.75473C9.67563 4.25887 10.8306 4.00123 12 3.99997H12.55L13.1 2.34997L13.2 2.04997C12.8015 2.00785 12.4007 1.99115 12 1.99997ZM14 7.99997V5.99997L15 2.99997H18L17 5.99997H20V7.99997L16 11V7.99997H14Z" fill="#0F1621"/>
</svg>

<svg xmlns="http://www.w3.org/2000/svg" width="24" height="24" viewBox="0 0 24 24"><rect width="24" height="24" style="fill:none"/><path d="M2,12v3a2,2,0,0,0,2,2V14h7V12Zm16,0-.8.6L15.33,14H20v3a2,2,0,0,0,2-2V12ZM6,16v4a2,2,0,0,0,2,2h8a2,2,0,0,0,2-2V16ZM7.29,8.29,8.72,9.72A4,4,0,0,1,12,8V6A6,6,0,0,0,7.29,8.29ZM12,2A10,10,0,0,0,4.45,5.45L5.87,6.87A8,8,0,0,1,12,4l.55,0,.55-1.65.1-.3A9.44,9.44,0,0,0,12,2Zm2,6V6l1-3h3L17,6h3V8l-4,3V8Z"/></svg>
